16x16/panel/premid-tray.svg

<svg xmlns="http://www.w3.org/2000/svg" width="16" height="16" version="1.1">
 <defs>
  <style id="current-color-scheme" type="text/css">
   .ColorScheme-Text { color:#323a41; } .ColorScheme-Highlight { color:#4285f4; } .ColorScheme-NeutralText { color:#ff9800; } .ColorScheme-PositiveText { color:#4caf50; } .ColorScheme-NegativeText { color:#f44336; }
  </style>
 </defs>
 <path style="fill:currentColor" class="ColorScheme-Text" d="M 1.9746094,3 C 1.4363828,3.0002 1.0001392,3.4049711 1,3.9042969 V 11.095703 C 1.0001391,11.595029 1.4363827,11.9998 1.9746094,12 H 15.025391 C 15.563617,11.9998 15.999861,11.595029 16,11.095703 V 3.9042969 C 15.999861,3.4049712 15.563617,3.0002002 15.025391,3 Z m 1.2617187,2 c 6.51e-4,-2.4e-6 0.0013,-2.4e-6 0.00195,0 0.00846,-4.125e-4 0.016932,-4.125e-4 0.025391,0 0.041239,0.00163 0.081455,0.013021 0.1171875,0.033203 l 3.9921875,2.2519531 c 0.1681946,0.096083 0.1681946,0.3336044 0,0.4296876 L 3.3808594,9.9667969 C 3.2115974,10.061123 3.0010458,9.94235 3,9.7519531 V 5.2480469 C 3.0000918,5.1176291 3.1032062,5.0094016 3.2363281,5 Z m 6.2363281,0 h 2.0550158 c 0.260778,0.00161 0.471654,0.2246904 0.472656,0.5 -0.001,0.2753096 -0.211878,0.4983858 -0.472656,0.5 H 9.4726562 C 9.2118784,5.9983859 9.0010016,5.7753097 9,5.5 8.9991758,5.3672408 9.0491825,5.2397591 9.1386719,5.1464844 9.2267981,5.0522073 9.3471943,4.9994019 9.4726562,5 Z m -0.074219,2 h 4.2031245 c 0.355559,-0.00173 0.5346,0.5378567 0.283204,0.8535156 C 13.809596,7.9476017 13.70771,8.0003015 13.601562,8 H 9.3984375 C 9.1787628,7.999043 9.0008467,7.7757758 9,7.5 9.0008467,7.2242242 9.1787628,7.000957 9.3984375,7 Z m 0.035156,2 h 4.2031252 c 0.353754,3.9e-6 0.531936,0.5357795 0.283203,0.8515625 C 13.845008,9.9463647 13.74309,9.9997836 13.636719,10 H 9.4335938 C 9.2139191,9.999043 9.0360031,9.7757759 9.0351562,9.5 9.0360031,9.2242241 9.2139191,9.000957 9.4335938,9 Z"/>
</svg>

<svg xmlns="http://www.w3.org/2000/svg" width="16" height="16"><defs><style id="current-color-scheme" type="text/css"></style></defs><path style="fill:currentColor;color:#323a41" d="M1.975 3C1.436 3 1 3.405 1 3.904v7.192c0 .499.436.904.975.904h13.05c.539 0 .975-.405.975-.904V3.904c0-.499-.436-.904-.975-.904zm1.261 2a.264.264 0 0 1 .028 0 .26.26 0 0 1 .117.033l3.992 2.252a.246.246 0 0 1 0 .43L3.381 9.967C3.21 10.06 3 9.942 3 9.752V5.248c0-.13.103-.239.236-.248zm6.237 0h2.055a.49.49 0 0 1 .472.5.49.49 0 0 1-.472.5H9.473A.49.49 0 0 1 9 5.5c0-.133.05-.26.139-.354A.454.454 0 0 1 9.473 5zm-.075 2h4.204c.355-.002.534.538.283.854a.364.364 0 0 1-.283.146H9.398c-.22-.001-.397-.224-.398-.5 0-.276.179-.499.398-.5zm.036 2h4.203c.353 0 .532.536.283.852a.364.364 0 0 1-.283.148H9.434c-.22-.001-.398-.224-.399-.5.001-.276.179-.499.399-.5z"/></svg>
